X:1
T:G Major                      Jeremiah Ingalls, 1805
T:John Leland, 1754-1841            77. 77.
T:Consolation
T:Transcribed from Ingalls' Christian Harmony, 1805.
%%score [ 1 2 3 ]
L:1/8
Q:1/4=100
M:6/8
K:G
V:1 treble nm="Tr." snm="Tr."
V:2 treble-8 nm="T." snm="T."
V:3 bass nm="B." snm="B."
V:1
 d2 d d2 c | B2 G d3 | B2 c d2 c | B2 A A3 | d2 d d2 c | BAG d3 | B2 B cBA | d2 d d3- | d3 d2 d | %9
w: 1.~Come and taste a-|long with me|Con- so- la- tion|run- ning free|From our Fa- ther's|wor- * thy home,|Swee- ter than * the|ho- ney- comb.~|_ From our|
w: 2.~Good- ness here, and|good- ness there,|Com- forts flo- wing|eve- ry- where;|By his con- stant|brea- * king forth,|Glad- dens earth * and|hea- ven both.~|_ By his|
w: 3.~Though my bo- dy|doth its best,|For to keep me|off from Christ,|Drawn by grace I'll|run * to him,|Who a- lone * can|par- don sin.~|_ Drawn by|
 d2 c BAG | d3 B2 B | cBA [Gd]2 [Fc] | [GB]6 |] %13
w: Fa- ther's wor- * thy|home, Swee- ter|than * the ho- ney-|comb.|
w: con- stant brea- * king|forth, Glad- dens|earth * and hea- ven|both.|
w: grace I'll run * to|him, Who a-|lone * can par- don|sin.|
V:2
 B2 B B2 A | G2 B A3 | G2 A B2 A | B2 e d3 | B2 B B2 A | dcB A3 | d2 d edc | B2 A B3- | B3 B2 B | %9
w: 4.~Now I'll go to|hea- ven's door,|Ask- ing for a|lit- tle more;|Je- sus gives a|dou- * ble share,|Cal- ling me * a|glea- ner there.~|_ Je- sus|
w: 5.~Sin- ful na- ture|lurks in vice,|Can- not stop the|works of grace;|While there is a|God * to give,|And a sin- * ner|to re- ceive.~|_ While there|
w: 6.~Now I'll go re-|joi- cing home|From the ban- quet|of per- fume;|Glea- ning ma- ny|on * the road,|Drop- ping from * the|mouth of god.~|_ Glea- ning|
 B2 A dcB | A3 d2 d | edc B2 A | G6 |] %13
w: gives a dou- * ble|share, Cal- ling|me * a glea- ner|there.|
w: is a God * to|give, And a|sin- * ner to re-|ceive.|
w: ma- ny on * the|road, Drop- ping|from * the mouth of|God.|
V:3
 G,2 G, G,2 D, | E,2 E, D,3 | G,2 G, G,2 D, | G,2 A, D,3 | G,2 G, G,2 D, | G,F,G, D,3 | %6
w: 7.~Good- ness run- ning|like a stream|Through the new Je-|ru- sa- lem;|By his con- stant|brea- * king forth,|
w: 8.~Hea- ven's here and|hea- ven's there,|Com- forts flo- wing|eve- ry- where;|This I bold- ly|can * pro- test,|
 G,2 G, C,2 C, | D,2 D, G,3- | G,3 G,2 G, | G,2 D, G,F,G, | D,3 G,2 G, | C,2 C, D,2 D, | G,,6 |] %13
w: Glad- dens earth and|hea- ven both.~|_ By his|con- stant brea- * king|forth, Glad- dens|earth and hea- ven|both.|
w: For my soul has|fot a taste.~|_ This I|bold- ly can * pro-|test, For my|soul has got a|taste.|

